assets/Cut of meat/Flat/cut_of_meat_flat.svg

<svg width="32" height="32" viewBox="0 0 32 32" fill="none" xmlns="http://www.w3.org/2000/svg">
<path d="M27.8126 16.775C26.9126 17.685 26.3526 18.885 26.2426 20.155C26.0226 22.695 24.9126 25.085 23.1126 26.885C18.9526 31.035 12.1926 31.035 8.04258 26.885L4.89258 23.735L6.49258 22.145C6.10258 18.995 7.11258 15.695 9.52258 13.285C11.3226 11.485 13.7126 10.375 16.2526 10.155C16.3313 10.1482 16.4098 10.1397 16.488 10.1294C16.1174 8.92127 16.4114 7.55587 17.37 6.59721C18.6932 5.27409 20.81 5.21705 22.2015 6.42611L24.8426 3.78503L27.9926 6.93503C30.6526 9.59503 30.6526 13.935 27.9926 16.595L27.8126 16.775Z" fill="#FBB8AB"/>
<path fill-rule="evenodd" clip-rule="evenodd" d="M24.8725 13.835C23.9725 14.745 23.4125 15.945 23.3025 17.215C23.0925 19.755 21.9725 22.145 20.1825 23.955C16.0225 28.105 9.2625 28.115 5.1125 23.955C0.9625 19.795 0.9625 13.035 5.1125 8.885C6.9125 7.085 9.3025 5.975 11.8325 5.745C13.1025 5.635 14.3125 5.075 15.2125 4.175L15.3925 3.995C18.0525 1.335 22.3925 1.335 25.0525 3.995C27.7125 6.655 27.7125 10.995 25.0525 13.655L24.8725 13.835ZM18.6624 7.88501C17.9924 8.55501 17.9924 9.63501 18.6624 10.305C19.3324 10.975 20.4224 10.975 21.0924 10.315C21.7624 9.64501 21.7624 8.55501 21.0924 7.88501C20.4224 7.21501 19.3324 7.21501 18.6624 7.88501Z" fill="#F4F4F4"/>
<path d="M7.67636 8.79381C7.02018 9.3145 7.11883 10.3718 7.9025 10.735L12.8225 13.065C12.8275 13.065 12.8325 13.0675 12.8375 13.07C12.8425 13.0725 12.8475 13.075 12.8525 13.075C13.8225 13.525 14.9625 13.355 15.7225 12.595L16.4625 11.855C16.9325 11.385 17.1125 10.695 16.9225 10.065C16.6025 8.99498 16.8625 7.78498 17.7025 6.94498C18.9625 5.67498 21.0525 5.72498 22.2525 7.09498C23.2825 8.25498 23.2825 10.035 22.2525 11.205C21.4025 12.165 20.1225 12.475 19.0025 12.135C18.3625 11.935 17.6725 12.115 17.2025 12.585L16.4725 13.315C15.7125 14.075 15.5425 15.225 16.0025 16.195C16.0025 16.2 16.005 16.2025 16.0075 16.205C16.01 16.2075 16.0125 16.21 16.0125 16.215L18.3525 21.125C18.7178 21.893 19.741 22.0031 20.2636 21.3813C21.1014 20.105 21.6179 18.6302 21.7526 17.085C21.8925 15.445 22.6126 13.905 23.7726 12.735L23.9525 12.555C25.0018 11.5058 25.5166 10.1245 25.497 8.75074C25.4792 7.59739 25.0859 6.4492 24.3169 5.50662C24.2036 5.36805 24.0822 5.23396 23.9525 5.10497C23.8532 5.00559 23.7508 4.91101 23.6457 4.82122C21.5616 3.04889 18.4179 3.20315 16.4559 5.15164L16.3225 5.28497C15.1525 6.45497 13.6125 7.16497 11.9725 7.30497C10.4274 7.43964 8.95264 7.95609 7.67636 8.79381Z" fill="#F8312F"/>
<path d="M4.94798 11.5656C5.26604 11.0957 5.87664 10.9314 6.3925 11.165L12.4025 13.985C13.5725 14.535 14.5225 15.485 15.0825 16.645L17.9325 22.625C18.1825 23.155 17.9925 23.785 17.5025 24.095C16.5628 24.6929 15.5384 25.1013 14.4832 25.3204C11.5878 25.9156 8.45806 25.0905 6.21255 22.845C3.15138 19.7838 2.72986 15.0794 4.94798 11.5656Z" fill="#F8312F"/>
</svg>

<svg xmlns="http://www.w3.org/2000/svg" width="32" height="32" fill="none"><path fill="#FBB8AB" d="M27.813 16.775c-.9.91-1.46 2.11-1.57 3.38-.22 2.54-1.33 4.93-3.13 6.73-4.16 4.15-10.92 4.15-15.07 0l-3.15-3.15 1.6-1.59c-.39-3.15.62-6.45 3.03-8.86 1.8-1.8 4.19-2.91 6.73-3.13a5.29 5.29 0 0 0 .235-.026 3.525 3.525 0 0 1 .882-3.532 3.55 3.55 0 0 1 4.831-.17l2.642-2.642 3.15 3.15c2.66 2.66 2.66 7 0 9.66l-.18.18Z"/><path fill="#F4F4F4" fill-rule="evenodd" d="M24.872 13.835c-.9.91-1.46 2.11-1.57 3.38a10.89 10.89 0 0 1-3.12 6.74c-4.16 4.15-10.92 4.16-15.07 0s-4.15-10.92 0-15.07c1.8-1.8 4.19-2.91 6.72-3.14a5.47 5.47 0 0 0 3.38-1.57l.18-.18c2.66-2.66 7-2.66 9.66 0s2.66 7 0 9.66l-.18.18Zm-6.21-5.95c-.67.67-.67 1.75 0 2.42.67.67 1.76.67 2.43.01.67-.67.67-1.76 0-2.43a1.72 1.72 0 0 0-2.43 0Z" clip-rule="evenodd"/><path fill="#F8312F" d="M7.676 8.794c-.656.52-.557 1.578.226 1.941l4.92 2.33c.006 0 .01.003.016.005.005.002.01.005.014.005.97.45 2.11.28 2.87-.48l.74-.74c.47-.47.65-1.16.46-1.79a3.14 3.14 0 0 1 .78-3.12 3.111 3.111 0 0 1 4.55.15c1.03 1.16 1.03 2.94 0 4.11-.85.96-2.13 1.27-3.25.93a1.79 1.79 0 0 0-1.8.45l-.73.73c-.76.76-.93 1.91-.47 2.88 0 .005.003.008.006.01.002.003.005.005.005.01l2.34 4.91a1.148 1.148 0 0 0 1.91.256 9.3 9.3 0 0 0 1.49-4.296c.14-1.64.86-3.18 2.02-4.35l.18-.18a5.258 5.258 0 0 0 1.544-3.804 5.25 5.25 0 0 0-1.851-3.93c-2.084-1.772-5.228-1.618-7.19.33l-.133.134a6.985 6.985 0 0 1-4.35 2.02 9.3 9.3 0 0 0-4.297 1.489Z"/><path fill="#F8312F" d="M4.948 11.566c.318-.47.929-.635 1.444-.401l6.01 2.82c1.17.55 2.12 1.5 2.68 2.66l2.85 5.98c.25.53.06 1.16-.43 1.47a9.046 9.046 0 0 1-3.019 1.225 9.087 9.087 0 0 1-8.27-2.475c-3.062-3.061-3.483-7.766-1.265-11.28Z"/></svg>
